icons/tscn.svg

<svg width="16" height="16" viewBox="0 0 16 16" fill="none" xmlns="http://www.w3.org/2000/svg">
<path fill-rule="evenodd" clip-rule="evenodd" d="M3 3.2H5.38453L4.3453 5H3V3.2ZM2 6V5V3.2C2 2.53726 2.44772 2 3 2H13C13.5523 2 14 2.53726 14 3.2V12.8C14 13.4627 13.5523 14 13 14H8.00245H7.99764H3C2.44772 14 2 13.4627 2 12.8V6ZM3 6H7.18637C6.82089 6.08618 6.45943 6.20612 6.12046 6.387C6.12824 6.70434 6.14757 7.00851 6.18676 7.31732C6.14604 7.34498 6.10469 7.37142 6.06334 7.39785L6.06332 7.39787C5.97101 7.45689 5.87879 7.51585 5.7939 7.58818L5.73282 7.63765L5.73281 7.63765C5.62785 7.72235 5.52296 7.80699 5.42825 7.90673C5.19939 7.74577 4.9618 7.59923 4.7167 7.46787C4.45112 7.77092 4.20286 8.0981 4 8.46414C4.15256 8.72591 4.31194 8.97136 4.48393 9.20419H4.48874V11.2948H4.48875C4.49268 11.2948 4.49653 11.2948 4.50037 11.2957L5.79924 11.4286C5.83217 11.432 5.8629 11.4476 5.88598 11.4727C5.90906 11.4979 5.92299 11.5309 5.92529 11.5659L5.96536 12.1739L7.09837 12.2596L7.17649 11.6984C7.18139 11.6632 7.19806 11.6311 7.22345 11.6079C7.24883 11.5846 7.28125 11.5718 7.31479 11.5718H8.68513C8.75449 11.5718 8.81337 11.6257 8.82351 11.6984L8.90154 12.2596L10.0346 12.1739L10.0747 11.5659C10.077 11.5309 10.091 11.4979 10.114 11.4728C10.1371 11.4476 10.1678 11.432 10.2008 11.4286L11.4991 11.2957C11.501 11.2957 11.503 11.2955 11.5049 11.2953L11.5079 11.2949L11.5107 11.2948V11.2717L11.5112 9.20447H11.516C11.6881 8.97155 11.8473 8.7261 12 8.46432C11.7972 8.09828 11.5487 7.77111 11.2831 7.46806C11.038 7.59947 10.8004 7.74604 10.5716 7.90701C10.4765 7.80675 10.3713 7.72184 10.2658 7.63673L10.2061 7.58837C10.1217 7.51651 10.0299 7.45777 9.93814 7.39906C9.89629 7.37228 9.85445 7.34551 9.81332 7.3175C9.85243 7.0086 9.87176 6.70462 9.87954 6.38719C9.54057 6.2063 9.17911 6.08636 8.81345 6.00028C8.66745 6.26038 8.53396 6.5421 8.41771 6.81751C8.27984 6.79312 8.14128 6.78412 8.00262 6.78226H7.99729C7.85837 6.78412 7.71998 6.79312 7.58203 6.81751C7.46586 6.5421 7.33263 6.26011 7.18637 6H13V12.8H11.3094C11.4399 12.5825 11.5108 12.3347 11.5108 12.0561C11.5108 12.046 11.511 12.038 11.5113 12.0265V12.0265C11.5119 12.0042 11.5128 11.9689 11.5131 11.881L10.3456 12.0004L10.3054 12.6117C10.303 12.6473 10.2886 12.6808 10.2648 12.7061C10.241 12.7314 10.2093 12.7467 10.1757 12.7492L9.50457 12.8H8.67445C8.65829 12.7793 8.64766 12.7541 8.64392 12.7272L8.56458 12.1567H7.43568L7.35634 12.7272C7.35261 12.7541 7.34198 12.7793 7.32585 12.8H6.5005L5.82443 12.7489C5.79085 12.7463 5.75927 12.731 5.73549 12.7057C5.71171 12.6804 5.69732 12.6469 5.69497 12.6113L5.65473 12L4.48664 11.881C4.48698 11.9689 4.48779 12.0044 4.4883 12.0267C4.48856 12.0382 4.48874 12.0462 4.48874 12.0561C4.48874 12.3347 4.55973 12.5825 4.69026 12.8H3L3 6ZM13 5V3.2H12.5392L11.5 5H13ZM10.3688 5L10.3512 4.98984L11.3845 3.2H9.53923L8.5 5H10.3688ZM7.3453 5L8.38453 3.2H6.53923L5.5 5H7.3453ZM9.42857 10.5714C9.90196 10.5714 10.2857 10.1877 10.2857 9.71428C10.2857 9.24089 9.90196 8.85714 9.42857 8.85714C8.95519 8.85714 8.57143 9.24089 8.57143 9.71428C8.57143 10.1877 8.95519 10.5714 9.42857 10.5714ZM6.57143 10.5714C7.04482 10.5714 7.42857 10.1877 7.42857 9.71429C7.42857 9.2409 7.04482 8.85715 6.57143 8.85715C6.09804 8.85715 5.71429 9.2409 5.71429 9.71429C5.71429 10.1877 6.09804 10.5714 6.57143 10.5714Z" fill="#D9606C"/>
</svg>

<svg xmlns="http://www.w3.org/2000/svg" width="16" height="16" fill="none"><path fill="#D9606C" fill-rule="evenodd" d="M3 3.2h2.385L4.345 5H3V3.2ZM2 6V3.2C2 2.537 2.448 2 3 2h10c.552 0 1 .537 1 1.2v9.6c0 .663-.448 1.2-1 1.2H3c-.552 0-1-.537-1-1.2V6Zm1 0h4.186a4.39 4.39 0 0 0-1.066.387c.008.317.028.622.067.93-.041.028-.082.054-.124.08-.092.06-.184.119-.27.191l-.06.05c-.105.084-.21.169-.305.269a6.915 6.915 0 0 0-.711-.44A5.74 5.74 0 0 0 4 8.465c.153.262.312.507.484.74h.005v2.09a.05.05 0 0 1 .011.002l1.3.133a.137.137 0 0 1 .086.044.153.153 0 0 1 .04.093l.04.608 1.132.086.078-.562a.15.15 0 0 1 .047-.09.135.135 0 0 1 .092-.036h1.37c.07 0 .128.054.139.126l.078.562 1.133-.086.04-.608a.153.153 0 0 1 .039-.093.137.137 0 0 1 .087-.044l1.298-.133h.006l.003-.001h.003V9.204h.005c.172-.232.331-.478.484-.74a5.738 5.738 0 0 0-.717-.996 6.916 6.916 0 0 0-.711.439c-.095-.1-.2-.185-.306-.27l-.06-.049a2.397 2.397 0 0 0-.268-.189c-.042-.027-.084-.053-.125-.082.04-.308.059-.612.067-.93-.34-.18-.7-.3-1.067-.387-.146.26-.279.542-.395.818a2.573 2.573 0 0 0-.415-.036h-.006c-.139.002-.277.011-.415.036A8.153 8.153 0 0 0 7.186 6H13v6.8h-1.69a1.42 1.42 0 0 0 .201-.774c0-.022.002-.057.002-.145l-1.167.12-.04.61a.153.153 0 0 1-.041.095.136.136 0 0 1-.09.043l-.67.051h-.83a.153.153 0 0 1-.031-.073l-.08-.57H7.437l-.08.57a.153.153 0 0 1-.03.073H6.5l-.677-.051a.137.137 0 0 1-.089-.043.153.153 0 0 1-.04-.095L5.655 12l-1.168-.119a6.836 6.836 0 0 0 .002.175c0 .279.07.527.201.744H3V6Zm10-1V3.2h-.46L11.5 5H13Zm-2.631 0-.018-.01 1.033-1.79H9.54L8.5 5h1.869ZM7.345 5l1.04-1.8H6.539L5.5 5h1.845Zm2.084 5.571a.857.857 0 1 0 0-1.714.857.857 0 0 0 0 1.714Zm-2.858 0a.857.857 0 1 0 0-1.714.857.857 0 0 0 0 1.714Z" clip-rule="evenodd"/></svg>
